X:1
T:Cindy
L:1/4
M:4/4
I:linebreak $
K:D
V:1 treble
V:1
 "D"e | f a a b | a f2 d/e/ | f f e d | "D"f3 e | f a a b | a f2 d/e/ | "D"f d "A"e c | "D"d2 f/e/ d |$
 "G"B2 B3/2 A/ |  B d f/e/ d |"D" A3 B | A2 f/e/ d | "G"B2 B3/2 A/ | B d2 e | "D"f f "A"e e |"D" d3 |]
